Numix-Circle/48x48/apps/puddletag.svg

<svg width="48" xmlns="http://www.w3.org/2000/svg" viewBox="0 0 13.546667 13.546667" height="48" xmlns:xlink="http://www.w3.org/1999/xlink">
<defs>
<linearGradient id="linearGradient3844">
<stop offset="0" style="stop-color:#5685b1"/>
<stop offset="1" style="stop-color:#24547d"/>
</linearGradient>
<linearGradient xlink:href="#linearGradient3844" id="linearGradient3850" y1="6.773" y2="12.7" x2="0" gradientUnits="userSpaceOnUse"/>
</defs>
<g style="fill-rule:evenodd">
<rect width="12.982" x=".282" y=".282" rx="6.491" height="12.982" style="opacity:.5;fill:#fff"/>
<rect width="11.853" x=".847" y=".847" rx="5.926" height="11.853" style="fill:url(#linearGradient3850)"/>
</g>
<path style="fill:#f9f9f9;fill-opacity:.941" d="M 23.71875 16 C 23.114676 16.001266 22.651677 16.113405 22.125 16.375 C 21.617602 16.627018 21.211738 16.95325 20.875 17.4375 C 20.469369 18.020829 20.125 19.089942 20.125 19.71875 C 20.125 19.849828 20.090705 19.982149 20.0625 20 C 20.034154 20.017823 19.906329 19.973077 19.78125 19.90625 C 19.597175 19.80815 19.480402 19.783504 19.09375 19.78125 C 18.653108 19.77865 18.58559 19.796577 18.25 19.96875 C 17.711198 20.245234 17.31264 20.66638 17 21.3125 C 16.746583 21.836259 16.75 21.859509 16.75 22.375 C 16.75 22.827631 16.756016 22.909343 16.875 23.15625 L 17.03125 23.46875 L 16.84375 23.46875 C 16.753573 23.482215 16.412802 23.53083 16.0625 23.5625 C 14.566176 23.697833 13.339573 24.240782 12.71875 25.03125 C 12.459026 25.361911 12.15846 26.064899 12.0625 26.5625 C 11.940327 27.196014 11.99262 28.140779 12.15625 28.625 C 12.482482 29.590362 13.261014 30.377359 14.1875 30.625 C 14.77858 30.782985 15.87359 30.685553 16.4375 30.4375 C 16.554252 30.386122 16.766119 30.274364 16.90625 30.1875 C 17.046388 30.100636 17.148419 30.051484 17.15625 30.0625 C 17.164045 30.073413 17.260695 30.177713 17.34375 30.3125 C 17.832071 31.105142 19.022006 31.791992 20.15625 31.9375 C 22.169536 32.195772 24.005737 31.455266 24.78125 30.0625 C 24.883439 29.879024 24.984409 29.719547 25 29.71875 C 25.015591 29.717855 25.075181 29.788458 25.125 29.875 C 25.502054 30.53001 26.154265 31.180276 26.84375 31.53125 C 28.141036 32.191627 29.772223 31.918867 30.9375 30.84375 C 31.140248 30.656713 31.671246 30.00918 31.875 29.71875 C 31.882441 29.707837 32.032767 29.843691 32.1875 30 C 32.534744 30.35077 32.798484 30.499285 33.40625 30.65625 C 33.933515 30.792419 34.678515 30.825357 35.125 30.71875 C 35.270949 30.683848 35.598604 30.54362 35.875 30.40625 C 36.303935 30.19307 36.464334 30.080302 36.875 29.65625 C 37.25835 29.260408 37.383396 29.056378 37.5625 28.6875 C 38.15779 27.461436 38.135276 26.232132 37.5 25.25 C 37.252854 24.867894 36.627556 24.223591 36.21875 23.96875 C 35.078391 23.257879 33.545557 23.095881 32.65625 23.5625 L 32.46875 23.65625 L 32.375 23.09375 C 32.216615 22.133054 31.947063 21.553561 31.4375 20.9375 C 30.922668 20.315069 30.223729 19.966411 29.3125 19.875 C 28.810874 19.824674 28.118056 19.886506 27.65625 20.03125 C 27.469376 20.089863 27.318417 20.13293 27.3125 20.125 C 27.306476 20.116992 27.25397 19.927163 27.21875 19.6875 C 26.899002 17.512166 25.470745 15.996342 23.71875 16 z M 25.8125 21 C 26.036756 21 26.274785 21.056344 26.46875 21.1875 C 27.244617 21.712113 28 21.53125 28 21.53125 C 28 21.53125 27.235991 22.753319 26.25 22.5625 C 25.318111 22.382897 25.125088 22.629789 25.09375 22.65625 L 25.0625 26.625 C 25.062228 26.651894 25.064023 26.661042 25.0625 26.6875 C 25.018342 27.537234 24.256817 28.389633 23.21875 28.78125 C 21.901865 29.278167 20.527897 28.845533 20.125 27.8125 C 19.722102 26.779667 20.433122 25.528193 21.75 25.03125 C 22.769323 24.646734 23.852374 24.829127 24.46875 25.40625 L 24.46875 21.46875 L 24.4375 21.40625 C 24.4375 21.40625 25.139676 20.990501 25.8125 21 z " transform="scale(.28222)"/>
</svg>

<svg viewBox="0 0 48 48"><defs><linearGradient id="1" gradientUnits="userSpaceOnUse" y1="15" x2="0" y2="11" gradientTransform="matrix(15.333333,0,0,11.5,414.99999,-125.5)"><stop/><stop offset="1" stop-opacity="0"/></linearGradient><clipPath id="clipPath-119174069"><g transform="translate(0,-1004.3622)"><path d="m -24 13 c 0 1.105 -0.672 2 -1.5 2 -0.828 0 -1.5 -0.895 -1.5 -2 0 -1.105 0.672 -2 1.5 -2 0.828 0 1.5 0.895 1.5 2 z" transform="matrix(15.333333,0,0,11.5,414.99999,878.8622)" fill="#1890d0"/></g></clipPath><clipPath id="clipPath-128807303"><g transform="translate(0,-1004.3622)"><path d="m -24 13 c 0 1.105 -0.672 2 -1.5 2 -0.828 0 -1.5 -0.895 -1.5 -2 0 -1.105 0.672 -2 1.5 -2 0.828 0 1.5 0.895 1.5 2 z" transform="matrix(15.333333,0,0,11.5,414.99999,878.8622)" fill="#1890d0"/></g></clipPath></defs><g><g transform="translate(0,-1004.3622)"><path d="m 25 1006.36 c -12.703 0 -23 10.298 -23 23 0 6.367 2.601 12.12 6.781 16.281 4.085 3.712 9.514 5.969 15.469 5.969 12.703 0 23 -10.297 23 -23 0 -5.954 -2.256 -11.384 -5.969 -15.469 -4.165 -4.181 -9.914 -6.781 -16.281 -6.781 z m 16.281 6.781 c 3.854 4.113 6.219 9.637 6.219 15.719 0 12.703 -10.297 23 -23 23 -6.081 0 -11.606 -2.364 -15.719 -6.219 4.16 4.144 9.883 6.719 16.219 6.719 12.703 0 23 -10.297 23 -23 0 -6.335 -2.575 -12.06 -6.719 -16.219 z" opacity="0.05"/><path d="m 41.28 1013.14 c 3.712 4.085 5.969 9.514 5.969 15.469 0 12.703 -10.297 23 -23 23 -5.954 0 -11.384 -2.256 -15.469 -5.969 4.113 3.854 9.637 6.219 15.719 6.219 12.703 0 23 -10.297 23 -23 0 -6.081 -2.364 -11.606 -6.219 -15.719 z" opacity="0.1"/><path transform="matrix(15.333333,0,0,11.5,415.24999,879.11222)" d="m -24 13 a 1.5 2 0 1 1 -3 0 1.5 2 0 1 1 3 0 z" opacity="0.2"/></g></g><g><g transform="translate(0,-1004.3622)"><path d="m -24 13 c 0 1.105 -0.672 2 -1.5 2 -0.828 0 -1.5 -0.895 -1.5 -2 0 -1.105 0.672 -2 1.5 -2 0.828 0 1.5 0.895 1.5 2 z" transform="matrix(15.333333,0,0,11.5,414.99999,878.8622)" fill="#5685b1"/></g></g><g><path d="m 47 24 c 0 12.703 -10.297 23 -23 23 -12.703 0 -23 -10.297 -23 -23 0 -12.703 10.297 -23 23 -23 12.703 0 23 10.297 23 23 z" opacity="0.15" fill="url(#1)"/></g><g><g clip-path="url(#clipPath-119174069)"><g transform="translate(0,1)"><g opacity="0.1"><!-- color: #5685b1 --><g><path d="m 23.719 16 c -0.605 0 -1.066 0.113 -1.594 0.375 c -0.508 0.25 -0.914 0.578 -1.25 1.063 c -0.406 0.582 -0.75 1.652 -0.75 2.281 c 0 0.133 -0.035 0.262 -0.063 0.281 c -0.027 0.02 -0.156 -0.027 -0.281 -0.094 c -0.184 -0.098 -0.301 -0.125 -0.688 -0.125 c -0.441 -0.004 -0.508 0.016 -0.844 0.188 c -0.539 0.277 -0.938 0.699 -1.25 1.344 c -0.254 0.523 -0.25 0.547 -0.25 1.063 c 0 0.453 0.004 0.535 0.125 0.781 l 0.156 0.313 l -0.188 0 c -0.094 0.016 -0.434 0.063 -0.781 0.094 c -1.496 0.137 -2.723 0.68 -3.344 1.469 c -0.262 0.332 -0.563 1.035 -0.656 1.531 c -0.125 0.637 -0.07 1.578 0.094 2.063 c 0.324 0.965 1.105 1.754 2.031 2 c 0.59 0.16 1.684 0.063 2.25 -0.188 c 0.117 -0.051 0.328 -0.16 0.469 -0.25 c 0.137 -0.086 0.242 -0.133 0.25 -0.125 c 0.008 0.012 0.102 0.117 0.188 0.25 c 0.488 0.793 1.676 1.48 2.813 1.625 c 2.01 0.258 3.848 -0.48 4.625 -1.875 c 0.102 -0.184 0.203 -0.34 0.219 -0.344 c 0.016 0 0.074 0.07 0.125 0.156 c 0.375 0.656 1.027 1.305 1.719 1.656 c 1.297 0.66 2.93 0.387 4.094 -0.688 c 0.203 -0.188 0.734 -0.836 0.938 -1.125 c 0.008 -0.012 0.16 0.125 0.313 0.281 c 0.348 0.352 0.613 0.5 1.219 0.656 c 0.527 0.137 1.273 0.168 1.719 0.063 c 0.148 -0.035 0.477 -0.176 0.75 -0.313 c 0.43 -0.215 0.59 -0.328 1 -0.75 c 0.383 -0.395 0.508 -0.602 0.691 -0.969 c 0.594 -1.227 0.57 -2.457 -0.066 -3.438 c -0.246 -0.383 -0.871 -1.027 -1.277 -1.281 c -1.141 -0.711 -2.676 -0.875 -3.566 -0.406 l -0.188 0.094 l -0.094 -0.563 c -0.156 -0.961 -0.426 -1.539 -0.938 -2.156 c -0.516 -0.621 -1.215 -0.973 -2.125 -1.063 c -0.5 -0.051 -1.195 0.012 -1.656 0.156 c -0.188 0.059 -0.336 0.102 -0.344 0.094 c -0.004 -0.008 -0.059 -0.199 -0.094 -0.438 c -0.32 -2.176 -1.746 -3.691 -3.5 -3.691 m 2.094 5 c 0.223 0 0.461 0.055 0.656 0.188 c 0.777 0.523 1.531 0.344 1.531 0.344 c 0 0 -0.766 1.223 -1.75 1.031 c -0.934 -0.18 -1.125 0.066 -1.156 0.094 l -0.031 3.969 c 0 0.027 0.004 0.035 0 0.063 c -0.043 0.852 -0.805 1.703 -1.844 2.094 c -1.316 0.5 -2.691 0.066 -3.094 -0.969 c -0.402 -1.031 0.309 -2.281 1.625 -2.781 c 1.02 -0.383 2.102 -0.199 2.719 0.375 l 0 -3.938 l -0.031 -0.063 c 0 0 0.703 -0.414 1.375 -0.406 m 0 0" fill="#000" stroke="none" fill-rule="nonzero" fill-opacity="0.941"/></g></g></g></g></g><g><g clip-path="url(#clipPath-128807303)"><!-- color: #5685b1 --><g><path d="m 23.719 16 c -0.605 0 -1.066 0.113 -1.594 0.375 c -0.508 0.25 -0.914 0.578 -1.25 1.063 c -0.406 0.582 -0.75 1.652 -0.75 2.281 c 0 0.133 -0.035 0.262 -0.063 0.281 c -0.027 0.02 -0.156 -0.027 -0.281 -0.094 c -0.184 -0.098 -0.301 -0.125 -0.688 -0.125 c -0.441 -0.004 -0.508 0.016 -0.844 0.188 c -0.539 0.277 -0.938 0.699 -1.25 1.344 c -0.254 0.523 -0.25 0.547 -0.25 1.063 c 0 0.453 0.004 0.535 0.125 0.781 l 0.156 0.313 l -0.188 0 c -0.094 0.016 -0.434 0.063 -0.781 0.094 c -1.496 0.137 -2.723 0.68 -3.344 1.469 c -0.262 0.332 -0.563 1.035 -0.656 1.531 c -0.125 0.637 -0.07 1.578 0.094 2.063 c 0.324 0.965 1.105 1.754 2.031 2 c 0.59 0.16 1.684 0.063 2.25 -0.188 c 0.117 -0.051 0.328 -0.16 0.469 -0.25 c 0.137 -0.086 0.242 -0.133 0.25 -0.125 c 0.008 0.012 0.102 0.117 0.188 0.25 c 0.488 0.793 1.676 1.48 2.813 1.625 c 2.01 0.258 3.848 -0.48 4.625 -1.875 c 0.102 -0.184 0.203 -0.34 0.219 -0.344 c 0.016 0 0.074 0.07 0.125 0.156 c 0.375 0.656 1.027 1.305 1.719 1.656 c 1.297 0.66 2.93 0.387 4.094 -0.688 c 0.203 -0.188 0.734 -0.836 0.938 -1.125 c 0.008 -0.012 0.16 0.125 0.313 0.281 c 0.348 0.352 0.613 0.5 1.219 0.656 c 0.527 0.137 1.273 0.168 1.719 0.063 c 0.148 -0.035 0.477 -0.176 0.75 -0.313 c 0.43 -0.215 0.59 -0.328 1 -0.75 c 0.383 -0.395 0.508 -0.602 0.691 -0.969 c 0.594 -1.227 0.57 -2.457 -0.066 -3.438 c -0.246 -0.383 -0.871 -1.027 -1.277 -1.281 c -1.141 -0.711 -2.676 -0.875 -3.566 -0.406 l -0.188 0.094 l -0.094 -0.563 c -0.156 -0.961 -0.426 -1.539 -0.938 -2.156 c -0.516 -0.621 -1.215 -0.973 -2.125 -1.063 c -0.5 -0.051 -1.195 0.012 -1.656 0.156 c -0.188 0.059 -0.336 0.102 -0.344 0.094 c -0.004 -0.008 -0.059 -0.199 -0.094 -0.438 c -0.32 -2.176 -1.746 -3.691 -3.5 -3.691 m 2.094 5 c 0.223 0 0.461 0.055 0.656 0.188 c 0.777 0.523 1.531 0.344 1.531 0.344 c 0 0 -0.766 1.223 -1.75 1.031 c -0.934 -0.18 -1.125 0.066 -1.156 0.094 l -0.031 3.969 c 0 0.027 0.004 0.035 0 0.063 c -0.043 0.852 -0.805 1.703 -1.844 2.094 c -1.316 0.5 -2.691 0.066 -3.094 -0.969 c -0.402 -1.031 0.309 -2.281 1.625 -2.781 c 1.02 -0.383 2.102 -0.199 2.719 0.375 l 0 -3.938 l -0.031 -0.063 c 0 0 0.703 -0.414 1.375 -0.406 m 0 0" fill="#f9f9f9" stroke="none" fill-rule="nonzero" fill-opacity="0.941"/></g></g></g><g><path d="m 40.03 7.531 c 3.712 4.084 5.969 9.514 5.969 15.469 0 12.703 -10.297 23 -23 23 c -5.954 0 -11.384 -2.256 -15.469 -5.969 4.178 4.291 10.01 6.969 16.469 6.969 c 12.703 0 23 -10.298 23 -23 0 -6.462 -2.677 -12.291 -6.969 -16.469 z" opacity="0.1"/></g></svg>
